X:744
M:C|
L:1/8
K:B_
d|~B2 dB FBDB|GFGB cBcd|B/B/B dB fBdB|egfe dBB:|
E|DE/F/ B,F BFdB|GFGB cBcd|Bfdf egdf|cBcd B/B/B BE|

